src/status/symbolic/network-wired-symbolic.svg

<?xml version="1.0" encoding="UTF-8" standalone="no"?>
<svg
   width="16"
   height="16"
   version="1.1"
   id="svg2"
   sodipodi:docname="network-wired-symbolic.svg"
   inkscape:version="1.3.2 (091e20ef0f, 2023-11-25)"
   xmlns:inkscape="http://www.inkscape.org/namespaces/inkscape"
   xmlns:sodipodi="http://sodipodi.sourceforge.net/DTD/sodipodi-0.dtd"
   xmlns="http://www.w3.org/2000/svg"
   xmlns:svg="http://www.w3.org/2000/svg">
  <defs
     id="defs2" />
  <sodipodi:namedview
     id="namedview2"
     pagecolor="#ffffff"
     bordercolor="#111111"
     borderopacity="1"
     inkscape:showpageshadow="0"
     inkscape:pageopacity="0"
     inkscape:pagecheckerboard="1"
     inkscape:deskcolor="#d1d1d1"
     inkscape:zoom="25.09375"
     inkscape:cx="8.3486924"
     inkscape:cy="10.261519"
     inkscape:window-width="1920"
     inkscape:window-height="1011"
     inkscape:window-x="0"
     inkscape:window-y="0"
     inkscape:window-maximized="1"
     inkscape:current-layer="svg2" />
  <path
     d="M 4.667,7.5 C 4.114,7.5 4,7.72414 4,8 4,8.27586 4.114,8.5 4.667,8.5 4.702,8.5 4.737,8.4985 4.772,8.49625 4.798,8.4969996 4.822,8.5 4.849,8.5 h 6.302 c 0.026,0 0.05,-0.003 0.074,-0.00375 C 11.261,8.4985 11.297,8.5 11.333,8.5 11.886,8.5 12,8.27586 12,8 12,7.72414 11.886,7.5 11.333,7.5 11.298,7.5 11.263,7.5015 11.228,7.50375 11.202,7.5030004 11.178,7.5 11.151,7.5 H 4.85 C 4.824,7.5 4.8,7.503 4.776,7.50375 A 1.49,1.1169 0 0 0 4.668,7.5 Z"
     fill="#363636"
     stroke-width="0.86581"
     id="path1"
     style="display:none" />
  <path
     d="m 0.14153,8.3799 2.9889,3.4517 c 0.18936,0.21992 0.49832,0.22092 0.69067,0.003 a 0.61592,0.61778 0 0 0 0.00199,-0.79171 l -2.6441,-3.0539 2.665,-3.0319 A 0.61692,0.61877 0 0 0 3.84598,4.16538 0.44649,0.44784 0 0 0 3.15531,4.16238 l -3.0108,3.4278 A 0.59898,0.60078 0 0 0 0,7.98504 c 0,0.14295 0.046842,0.2869 0.14152,0.39686 z m 15.717,-0.75972 -2.9889,-3.4517 a 0.44649,0.44784 0 0 0 -0.69067,-0.003 0.61592,0.61778 0 0 0 -0.002,0.79171 l 2.6441,3.0539 -2.664,3.0319 a 0.61692,0.61877 0 0 0 -0.002,0.79171 c 0.18936,0.21992 0.49832,0.21992 0.69067,0.003 l 3.0098,-3.4268 A 0.59898,0.60078 0 0 0 16.00004,8.01604 0.59997,0.60178 0 0 0 15.85852,7.61918 Z"
     fill="#363636"
     stroke-width="1.4972"
     id="path2"
     style="display:none" />
  <path
     d="M 6.2857143,0 C 5.6525714,0 5.1428571,0.50971429 5.1428571,1.1428571 v 3.4285715 c 0,0.6331428 0.5097143,1.1428571 1.1428572,1.1428571 H 7.4285714 V 6.8571429 H 4.5714286 c -1.2662857,0 -2.2857143,1.0194285 -2.2857143,2.2857142 V 10.285714 H 1.1428571 C 0.50971429,10.285714 0,10.795429 0,11.428571 v 3.428572 C 0,15.490286 0.50971429,16 1.1428571,16 h 3.4285715 c 0.6331428,0 1.1428571,-0.509714 1.1428571,-1.142857 v -3.428572 c 0,-0.633142 -0.5097143,-1.142857 -1.1428571,-1.142857 H 3.4285714 V 9.1428571 C 3.4285714,8.5097143 3.9382857,8 4.5714286,8 h 6.8571424 c 0.633143,0 1.142858,0.5097143 1.142858,1.1428571 v 1.1428569 h -1.142858 c -0.633142,0 -1.142857,0.509715 -1.142857,1.142857 v 3.428572 C 10.285714,15.490286 10.795429,16 11.428571,16 h 3.428572 C 15.490286,16 16,15.490286 16,14.857143 v -3.428572 c 0,-0.633142 -0.509714,-1.142857 -1.142857,-1.142857 H 13.714286 V 9.1428571 c 0,-1.2662857 -1.019429,-2.2857142 -2.285715,-2.2857142 H 8.5714286 V 5.7142857 h 1.1428571 c 0.6331433,0 1.1428573,-0.5097143 1.1428573,-1.1428571 V 1.1428571 C 10.857143,0.50971429 10.347429,0 9.7142857,0 Z m 0,1.1428571 H 9.7142857 V 4.5714286 H 8.5714286 7.4285714 6.2857143 Z M 1.1428571,11.428571 h 3.4285715 v 3.428572 H 1.1428571 Z m 10.2857139,0 h 3.428572 v 3.428572 h -3.428572 z"
     fill="#363636"
     id="path1-3"
     style="stroke-width:1.14286" />
</svg>

<?xml version="1.0" encoding="UTF-8"?>
<svg id="svg2" width="16" height="16" version="1.1" xmlns="http://www.w3.org/2000/svg">
 <path id="path1" d="m4.667 7.5c-0.553 0-0.667 0.22414-0.667 0.5s0.114 0.5 0.667 0.5c0.035 0 0.07-0.0015 0.105-0.00375 0.026 7.496e-4 0.05 0.00375 0.077 0.00375h6.302c0.026 0 0.05-3e-3 0.074-0.00375 0.036 0.00225 0.072 0.00375 0.108 0.00375 0.553 0 0.667-0.22414 0.667-0.5s-0.114-0.5-0.667-0.5c-0.035 0-0.07 0.0015-0.105 0.00375-0.026-7.496e-4 -0.05-0.00375-0.077-0.00375h-6.301c-0.026 0-0.05 3e-3 -0.074 0.00375a1.49 1.1169 0 0 0-0.108-0.00375z" display="none" fill="#363636" stroke-width=".86581"/>
 <path id="path2" d="m0.14153 8.3799 2.9889 3.4517c0.18936 0.21992 0.49832 0.22092 0.69067 3e-3a0.61592 0.61778 0 0 0 0.00199-0.79171l-2.6441-3.0539 2.665-3.0319a0.61692 0.61877 0 0 0 0.00199-0.79171 0.44649 0.44784 0 0 0-0.69067-3e-3l-3.0108 3.4278a0.59898 0.60078 0 0 0-0.14451 0.39486c0 0.14295 0.046842 0.2869 0.14152 0.39686zm15.717-0.75972-2.9889-3.4517a0.44649 0.44784 0 0 0-0.69067-3e-3 0.61592 0.61778 0 0 0-2e-3 0.79171l2.6441 3.0539-2.664 3.0319a0.61692 0.61877 0 0 0-2e-3 0.79171c0.18936 0.21992 0.49832 0.21992 0.69067 3e-3l3.0098-3.4268a0.59898 0.60078 0 0 0 0.14451-0.39486 0.59997 0.60178 0 0 0-0.14152-0.39686z" display="none" fill="#363636" stroke-width="1.4972"/>
 <path id="path1-3" d="m6.2857 0c-0.63314 0-1.1429 0.50971-1.1429 1.1429v3.4286c0 0.63314 0.50971 1.1429 1.1429 1.1429h1.1429v1.1429h-2.8571c-1.2663 0-2.2857 1.0194-2.2857 2.2857v1.1429h-1.1429c-0.63314 0-1.1429 0.50972-1.1429 1.1429v3.4286c0 0.63314 0.50971 1.1429 1.1429 1.1429h3.4286c0.63314 0 1.1429-0.50971 1.1429-1.1429v-3.4286c0-0.63314-0.50971-1.1429-1.1429-1.1429h-1.1429v-1.1429c0-0.63314 0.50971-1.1429 1.1429-1.1429h6.8571c0.63314 0 1.1429 0.50971 1.1429 1.1429v1.1429h-1.1429c-0.63314 0-1.1429 0.50972-1.1429 1.1429v3.4286c0 0.63314 0.50972 1.1429 1.1429 1.1429h3.4286c0.63314 0 1.1429-0.50971 1.1429-1.1429v-3.4286c0-0.63314-0.50971-1.1429-1.1429-1.1429h-1.1429v-1.1429c0-1.2663-1.0194-2.2857-2.2857-2.2857h-2.8571v-1.1429h1.1429c0.63314 0 1.1429-0.50971 1.1429-1.1429v-3.4286c0-0.63314-0.50971-1.1429-1.1429-1.1429zm0 1.1429h3.4286v3.4286h-3.4286zm-5.1429 10.286h3.4286v3.4286h-3.4286zm10.286 0h3.4286v3.4286h-3.4286z" fill="#363636" stroke-width="1.1429"/>
</svg>
